X: 1
T:Lord Torphichen's Strathspey	
M:C
Z: source from Highland Music Trust, chords by Gary Whaley
L:1/8
C: Magdelina Stirling
K:E
E/F/[|:"E"G>BTBA/G/ "A"A>cTcB/A/|"E"B>e {cd}eB/G/ {G}"B"F2 TFE/F/|\
"E"G>BTBA/G/ "A"Ac TcA//B//c//d// |"E"eB/G/eG/F/ E>FE :|]
e/c/[|"E"TB>cTe>f gbba/g/|{g}"B"a>fae "A"c>e Tce/c/| "E"B>cTe>f gbba/g/|"B"{g}a>f {f}b>g "E"e>fec|
"E"TB>cTe>f gbba/g/|"B"afe/a/f/e/ "A"c>eTce/c/|"E"TB>GGB "A"c>Ac z1 B//c//d//|"E"eB/G/eG/F/ E>FE |]